client/app/images/img_warning.svg

<?xml version="1.0" encoding="UTF-8"?>
<svg width="50px" height="45px" viewBox="0 0 50 45" version="1.1" xmlns="http://www.w3.org/2000/svg" xmlns:xlink="http://www.w3.org/1999/xlink">
    <!-- Generator: Sketch 42 (36781) - http://www.bohemiancoding.com/sketch -->
    <title>img_warning</title>
    <desc>Created with Sketch.</desc>
    <defs></defs>
    <g id="Page-1" stroke="none" stroke-width="1" fill="none" fill-rule="evenodd">
        <g id="img_warning" transform="translate(0.000000, -2.000000)">
            <rect id="bounds" opacity="0.1" x="0" y="0" width="50" height="50"></rect>
            <g id="Group" transform="translate(0.000000, 2.000000)">
                <path d="M1.57632629,39.9862073 C0.500359739,41.8497813 1.19218492,43.0503225 3.34548722,43.0503225 L46.6542133,43.0503225 C48.8061876,43.0503225 49.5000047,41.8509312 48.4233742,39.9862073 L26.7690112,2.48085117 C25.6930297,0.617251364 24.3073347,0.61610134 23.2306893,2.48085117 L1.57632629,39.9862073 Z M22.2930333,1.93947931 C23.787967,-0.64974587 26.2154907,-0.643238293 27.7066672,1.93947931 L49.3610302,39.4448354 C50.855964,42.0340606 49.6365662,44.1330423 46.6542133,44.1330423 L3.34548722,44.1330423 C0.355619749,44.1330423 -0.852506228,42.027553 0.638670246,39.4448354 L22.2930333,1.93947931 Z" id="Triangle" fill="#F39A1E" fill-rule="nonzero"></path>
                <path d="M24.231512,5.04871918 C24.6558501,4.31376546 25.3476858,4.32042934 25.7681765,5.04871918 L45.8196214,39.7778211 C46.2439595,40.5127749 45.8922705,41.1085726 45.0512891,41.1085726 L4.9483993,41.1085726 C4.09972294,41.1085726 3.75957638,40.506111 4.18006706,39.7778211 L24.231512,5.04871918 Z" id="Combined-Shape" fill-opacity="0.9" fill="#FDF4E7"></path>
                <path d="M20,38.5 C20,38.2238576 20.2276528,38 20.5096495,38 L29.4903505,38 C29.7718221,38 30,38.2319336 30,38.5 C30,38.7761424 29.7723472,39 29.4903505,39 L20.5096495,39 C20.2281779,39 20,38.7680664 20,38.5 Z" id="Combined-Shape" fill="#F39A1E" opacity="0.5"></path>
                <g transform="translate(23.000000, 18.000000)" id="Combined-Shape" fill="#F39A1E">
                    <path d="M0.0835394412,1.00247329 C0.0374018818,0.448822582 0.443353176,0 1.0093689,0 L2.9906311,0 C3.54809015,0 3.96201992,0.455760956 3.91646056,1.00247329 L3.08353944,10.9975267 C3.03740188,11.5511774 2.55613518,12 2,12 C1.44771525,12 0.96201992,11.544239 0.916460559,10.9975267 L0.0835394412,1.00247329 Z"></path>
                    <path d="M2,16 C1.44771525,16 1,15.5522847 1,15 C1,14.4477153 1.44771525,14 2,14 C2.55228475,14 3,14.4477153 3,15 C3,15.5522847 2.55228475,16 2,16 Z"></path>
                </g>
            </g>
        </g>
    </g>
</svg>

<svg width="50" height="45" viewBox="0 0 50 45" xmlns="http://www.w3.org/2000/svg"><title>img_warning</title><g fill="none" fill-rule="evenodd"><path opacity=".1" d="M0-2h50v50H0z"/><path d="M1.576 39.986C.5 41.85 1.192 43.05 3.346 43.05h43.308c2.152 0 2.846-1.2 1.77-3.064L26.768 2.48c-1.077-1.863-2.463-1.864-3.54 0L1.577 39.987zM22.293 1.94c1.495-2.59 3.922-2.583 5.414 0L49.36 39.444c1.496 2.59.277 4.688-2.706 4.688H3.344c-2.988 0-4.197-2.105-2.705-4.688L22.292 1.94z" fill="#F39A1E" fill-rule="nonzero"/><path d="M24.232 5.05c.424-.736 1.116-.73 1.536 0L45.82 39.777c.424.735.072 1.33-.77 1.33H4.95c-.848 0-1.188-.602-.768-1.33l20.052-34.73z" fill-opacity=".9" fill="#FDF4E7"/><path d="M20 38.5c0-.276.228-.5.51-.5h8.98c.282 0 .51.232.51.5 0 .276-.228.5-.51.5h-8.98c-.282 0-.51-.232-.51-.5z" fill="#F39A1E" opacity=".5"/><g fill="#F39A1E"><path d="M23.084 19.002c-.047-.553.36-1.002.925-1.002h1.98c.558 0 .972.456.926 1.002l-.832 9.996C26.037 29.55 25.556 30 25 30c-.552 0-1.038-.456-1.084-1.002l-.832-9.996zM25 34c-.552 0-1-.448-1-1s.448-1 1-1 1 .448 1 1-.448 1-1 1z"/></g></g></svg>
